lib/logo_tmp/nrk-logo-nrk-sami-radio.svg

<svg width="142" height="16" viewBox="0 0 142 16" fill="none" xmlns="http://www.w3.org/2000/svg">
<path d="M-4.19617e-05 15.0033V1.00453H4.59335V15.0033H-4.19617e-05ZM10.8427 3.2325L13.4844 15.0033H8.45732L5.30303 1.00453H8.1225C8.76903 0.996136 9.39637 1.22405 9.88687 1.64538C10.3782 2.04903 10.7157 2.6094 10.8427 3.2325ZM14.1744 15.0033V1.00453H18.7678V15.0033H14.1744ZM22.2372 6.32804C21.7422 6.33286 21.2552 6.20336 20.8279 5.95338C20.4064 5.70973 20.0562 5.35954 19.8126 4.93795C19.5624 4.51064 19.4328 4.02348 19.4378 3.52829C19.4321 3.03613 19.5617 2.55186 19.8126 2.12842C20.0588 1.71141 20.4086 1.36503 20.8279 1.12286C21.2553 0.873175 21.7422 0.743689 22.2372 0.748203C22.7292 0.742904 23.2133 0.872505 23.6369 1.12286C24.052 1.36715 24.3981 1.71324 24.6423 2.12842C24.8929 2.55198 25.0225 3.03616 25.0172 3.52829C25.0218 4.02344 24.8923 4.51052 24.6423 4.93795C24.4006 5.35769 24.0542 5.70758 23.6369 5.95338C23.2132 6.20423 22.7288 6.33386 22.2365 6.32804H22.2372ZM25.7269 15.0033V1.00453H30.3206V15.0033H25.7269ZM36.136 8.65453C36.1489 8.66811 36.2474 8.82912 36.4317 9.13757C36.6159 9.44602 36.8557 9.84039 37.1512 10.3206C37.4469 10.8006 37.759 11.3099 38.0873 11.8486C38.4157 12.3873 38.7247 12.8967 39.0143 13.3767C39.3027 13.8566 39.6313 14.3988 40 15.0033H34.9531C34.6375 14.4906 34.3515 14.0273 34.0952 13.6132C33.8389 13.1992 33.5665 12.7523 33.2778 12.2725C32.9884 11.7932 32.7023 11.3265 32.4195 10.8726C32.1367 10.4187 31.8937 10.0211 31.6904 9.67982C31.4863 9.33829 31.3449 9.10823 31.2662 8.98971C31.0713 8.69561 30.9559 8.35593 30.9314 8.00389C30.9509 7.66601 31.0597 7.33939 31.2465 7.05722C31.3254 6.92577 31.47 6.69242 31.6802 6.35724C31.8905 6.02206 32.137 5.62448 32.4195 5.16443C32.7021 4.70438 32.9882 4.23446 33.2778 3.75469C33.5673 3.27492 33.8398 2.8247 34.0952 2.40408C34.3519 1.9839 34.6379 1.51727 34.9531 1.00421H40L36.0962 7.37267C35.9754 7.56175 35.9073 7.77966 35.899 8.00389C35.912 8.2393 35.9942 8.46563 36.1353 8.65453H36.136Z" fill="white"/>
<path d="M54.0018 8.50667C53.7121 8.21142 53.3759 7.96587 53.0065 7.77984C52.6194 7.5839 52.2166 7.4206 51.8023 7.29163C51.3775 7.15888 50.9396 7.04604 50.4886 6.95311C50.1431 6.87368 49.8214 6.79414 49.5232 6.71448C49.2492 6.64376 48.9826 6.54696 48.727 6.42541C48.5073 6.32132 48.303 6.1873 48.12 6.02715C47.9476 5.87536 47.8145 5.6842 47.7318 5.46991C47.6398 5.21803 47.5959 4.9511 47.6024 4.68301C47.5978 4.40551 47.6416 4.12933 47.7318 3.8669C47.8132 3.63499 47.9498 3.42641 48.1299 3.25921C48.3163 3.08876 48.5276 2.94775 48.7566 2.84104C49.019 2.72166 49.2974 2.64116 49.5829 2.60208C49.9225 2.55395 50.2651 2.53077 50.608 2.53271C50.9205 2.53316 51.2328 2.54966 51.5435 2.58217C51.8579 2.61499 52.1702 2.66496 52.4791 2.73185C52.7791 2.7967 53.0749 2.87983 53.3648 2.98076C53.6363 3.07423 53.8993 3.19071 54.151 3.32891L54.4297 1.57688C54.1467 1.42909 53.8501 1.30906 53.544 1.21844C53.2321 1.12552 52.917 1.04575 52.5985 0.979154C52.2762 0.912496 51.9506 0.862756 51.6232 0.830137C51.2914 0.796948 50.953 0.780243 50.608 0.780022C49.9041 0.772306 49.202 0.85258 48.518 1.01898C47.9355 1.15951 47.3849 1.40966 46.8958 1.7561C46.4451 2.07968 46.0824 2.51081 45.8406 3.0103C45.5831 3.57187 45.4573 4.18486 45.4726 4.80249C45.4615 5.28056 45.539 5.75656 45.7012 6.20637C45.8443 6.58324 46.0648 6.92592 46.3485 7.21231C46.629 7.49263 46.9513 7.72774 47.3039 7.90927C47.6775 8.10171 48.067 8.26171 48.468 8.38752C48.8864 8.52028 49.3143 8.63312 49.7518 8.72605C50.1105 8.80548 50.4423 8.88845 50.747 8.97496C51.0311 9.05317 51.3076 9.15646 51.5734 9.28362C51.8017 9.39138 52.0129 9.53229 52.2001 9.70179C52.378 9.86886 52.5173 10.0727 52.6084 10.2992C52.714 10.572 52.7648 10.863 52.7577 11.1555C52.763 11.4664 52.7159 11.7761 52.6184 12.0715C52.531 12.3269 52.396 12.5634 52.2203 12.7684C52.0436 12.9702 51.8266 13.1328 51.5834 13.2457C51.3083 13.3723 51.0168 13.4595 50.7175 13.5049C50.352 13.561 49.9826 13.5876 49.6128 13.5845C49.2534 13.5836 48.8944 13.5604 48.538 13.5148C48.166 13.4684 47.7944 13.4053 47.4233 13.3257C47.0522 13.246 46.6905 13.1497 46.3382 13.0366C45.9867 12.9244 45.6518 12.8084 45.3333 12.6884L45.5917 14.6598C45.9311 14.7866 46.2767 14.8962 46.6271 14.9881C46.9451 15.0716 47.2674 15.138 47.5925 15.1872C47.9039 15.2337 48.2157 15.2702 48.528 15.2967C48.8403 15.3233 49.1554 15.3366 49.4735 15.3366C50.1859 15.341 50.8968 15.2675 51.5933 15.1175C52.21 14.9882 52.7973 14.7451 53.325 14.4006C53.8174 14.0746 54.2154 13.6248 54.4791 13.0963C54.7701 12.4705 54.91 11.7849 54.8875 11.0951C54.8984 10.5811 54.8208 10.069 54.6583 9.58132C54.5198 9.17966 54.2958 8.81321 54.0018 8.50667Z" fill="white"/>
<path d="M65.9146 13.863C65.7692 13.8764 65.6226 13.8545 65.4874 13.799C65.3523 13.7435 65.2325 13.6562 65.1384 13.5444C64.9538 13.2254 64.877 12.8554 64.9194 12.4893L64.9592 8.38688C64.9636 7.95683 64.91 7.52816 64.8 7.11243C64.7033 6.74784 64.5415 6.40377 64.3223 6.09686C64.1009 5.79668 63.8196 5.54578 63.4962 5.36007C63.1206 5.14675 62.7144 4.99229 62.292 4.90207C61.7754 4.79043 61.248 4.73699 60.7195 4.74276C60.3003 4.74258 59.8814 4.76918 59.4655 4.82242C59.0726 4.87188 58.6835 4.94839 58.3011 5.05142C57.9465 5.14767 57.5976 5.26401 57.2561 5.3999L57.0173 7.09252C57.349 6.97304 57.6643 6.87347 57.9631 6.79382C58.2619 6.71417 58.5504 6.64779 58.8286 6.59469C59.1016 6.5425 59.3774 6.50593 59.6546 6.48517C59.9264 6.46525 60.1952 6.4553 60.4608 6.4553C60.8667 6.44675 61.2718 6.49365 61.665 6.59469C61.9519 6.6664 62.2157 6.81036 62.4313 7.01287C62.6233 7.20979 62.7605 7.45347 62.8294 7.71978C62.9143 8.04819 62.9545 8.38657 62.9488 8.72573L62.9465 9.22356L60.62 9.38088C59.8242 9.40318 59.0402 9.57898 58.3111 9.89862C57.7655 10.1376 57.2944 10.5194 56.9476 11.0038C56.6534 11.4349 56.4972 11.9454 56.4998 12.4674C56.496 12.9572 56.6158 13.4401 56.8481 13.8713C57.0916 14.3142 57.458 14.6773 57.903 14.9167C58.446 15.1993 59.0529 15.3365 59.6646 15.315C60.2377 15.3282 60.8083 15.2336 61.3465 15.0362C61.812 14.8542 62.2378 14.5837 62.6005 14.2397C62.7382 14.1076 62.8689 13.9683 62.992 13.8225C63.0308 14.0287 63.1037 14.227 63.2076 14.4093C63.3851 14.7141 63.6579 14.952 63.9839 15.0863C64.3443 15.2312 64.7301 15.3023 65.1184 15.2954C65.2379 15.2954 65.354 15.2918 65.4668 15.2851C65.5776 15.2788 65.6875 15.2621 65.7952 15.2354C65.9014 15.2088 65.9972 15.1856 66.0838 15.1657C66.1618 15.1482 66.2383 15.1249 66.3127 15.096L66.5317 13.7618C66.4218 13.7996 66.3085 13.8264 66.1933 13.8418C66.1009 13.854 66.0078 13.8605 65.9146 13.8613M62.6005 12.9652C62.3848 13.136 62.1512 13.2829 61.9039 13.4033C61.6576 13.5231 61.3967 13.6103 61.1279 13.6625C60.849 13.7162 60.5656 13.7427 60.2816 13.7419C59.9572 13.7511 59.6347 13.69 59.3362 13.5626C59.0933 13.4573 58.8885 13.2802 58.749 13.0552C58.6111 12.8164 58.5422 12.544 58.5499 12.2683C58.5307 11.9363 58.6217 11.6073 58.8087 11.3324C59.0254 11.0793 59.3191 10.9044 59.6447 10.8345C60.1533 10.7149 60.6753 10.6615 61.1976 10.6756H62.9402L62.9313 12.6516C62.8299 12.7655 62.7189 12.8705 62.5995 12.9652" fill="white"/>
<path d="M63.8642 0.00341797H61.7145L60.0226 3.56788H61.5751L63.8642 0.00341797Z" fill="white"/>
<path d="M82.1757 5.16093C81.633 4.86608 81.0214 4.72171 80.4042 4.74275C79.8685 4.74132 79.3365 4.83226 78.8317 5.01158C78.3191 5.19533 77.8363 5.45366 77.3989 5.77824C77.1507 5.96188 76.9147 6.16143 76.6923 6.37563C76.4883 5.8771 76.1286 5.45796 75.6669 5.18084C75.1176 4.88452 74.4992 4.74016 73.8755 4.76267C73.3433 4.7629 72.815 4.85381 72.3133 5.03149C71.7982 5.2127 71.312 5.46758 70.8699 5.7882C70.7269 5.89141 70.5882 6.00326 70.4519 6.12008V4.76267L68.4216 5.06136V15.1175H70.4519V7.54321C70.6911 7.38654 70.9405 7.24595 71.1983 7.12238C71.5141 6.97316 71.8442 6.8564 72.1836 6.7739C72.4964 6.69658 72.8172 6.65647 73.1393 6.65442C73.4349 6.64556 73.7293 6.69635 74.0049 6.80377C74.233 6.90047 74.4345 7.05074 74.5924 7.24186C74.7651 7.46389 74.8842 7.72286 74.9404 7.99856C75.0181 8.35496 75.0549 8.71907 75.0502 9.08383V15.1175H77.0804V8.66565C77.0817 8.28474 77.056 7.90422 77.0035 7.52695C77.2336 7.37561 77.4719 7.23722 77.7174 7.11242C78.0276 6.95609 78.3548 6.83583 78.6924 6.75398C79.0117 6.67585 79.339 6.63574 79.6677 6.63451C79.9602 6.62743 80.2511 6.67819 80.5239 6.78385C80.756 6.87851 80.9611 7.02899 81.1211 7.22194C81.2941 7.44382 81.4134 7.70285 81.4694 7.97865C81.547 8.33506 81.5838 8.69917 81.5789 9.06391V15.1175H83.6091V8.64574C83.6347 7.89264 83.513 7.14179 83.2509 6.43537C83.0444 5.90267 82.6658 5.45416 82.1757 5.16093Z" fill="white"/>
<path d="M86.6154 15.1179H88.6457V4.763L86.6154 5.0617V15.1179Z" fill="white"/>
<path d="M88.3561 0.590858C88.1496 0.464577 87.9117 0.399017 87.6697 0.401683C87.4245 0.399795 87.1836 0.465228 86.973 0.590858C86.7655 0.712402 86.5912 0.883426 86.4658 1.08869C86.3393 1.2953 86.2737 1.53342 86.2764 1.77569C86.276 2.01878 86.3404 2.25758 86.4628 2.46756C86.5853 2.67753 86.7614 2.85112 86.973 2.97048C87.1856 3.09002 87.4258 3.15181 87.6697 3.1497C87.9104 3.15257 88.1475 3.09068 88.3561 2.97048C88.5609 2.85197 88.7296 2.67987 88.8441 2.47265C88.9635 2.25993 89.0253 2.01967 89.0232 1.77569C89.0259 1.53479 88.9641 1.29756 88.8441 1.08869C88.7257 0.884442 88.5579 0.713252 88.3561 0.590858Z" fill="white"/>
<path d="M100.607 4.89211C100.235 4.99193 99.8792 5.14627 99.5521 5.35012C99.2125 5.56212 98.8986 5.8127 98.6166 6.09686C98.5694 6.14399 98.524 6.19643 98.4772 6.24588V4.76268L96.4469 5.06138V15.1175H98.4772V7.59433C98.6315 7.48813 98.7871 7.38856 98.945 7.30161C99.1442 7.19186 99.3504 7.0954 99.5623 7.01287C99.7678 6.93322 99.9767 6.86352 100.189 6.80378C100.407 6.743 100.63 6.69972 100.856 6.67434C101.097 6.64787 101.34 6.64121 101.582 6.65443L101.821 4.78259C101.413 4.75327 101.003 4.79025 100.607 4.89211Z" fill="white"/>
<path d="M112.033 13.863C111.887 13.8764 111.741 13.8545 111.605 13.799C111.47 13.7435 111.35 13.6562 111.256 13.5444C111.072 13.2254 110.995 12.8554 111.037 12.4893L111.077 8.38688C111.082 7.95683 111.028 7.52816 110.918 7.11243C110.821 6.74784 110.659 6.40377 110.44 6.09686C110.219 5.79668 109.938 5.54578 109.614 5.36007C109.239 5.14675 108.832 4.99229 108.41 4.90207C107.893 4.79043 107.366 4.73699 106.838 4.74276C106.418 4.74258 105.999 4.76918 105.584 4.82242C105.191 4.87188 104.802 4.94839 104.419 5.05142C104.064 5.14767 103.716 5.26401 103.374 5.3999L103.135 7.09252C103.467 6.97304 103.782 6.87347 104.081 6.79382C104.38 6.71417 104.668 6.64779 104.947 6.59469C105.22 6.5425 105.495 6.50593 105.773 6.48517C106.044 6.46525 106.313 6.4553 106.579 6.4553C106.985 6.44675 107.39 6.49365 107.783 6.59469C108.07 6.6664 108.334 6.81036 108.549 7.01287C108.741 7.20978 108.879 7.45347 108.947 7.71978C109.032 8.04819 109.072 8.38657 109.067 8.72573L109.064 9.22356L106.738 9.38088C105.942 9.40318 105.158 9.57898 104.429 9.89862C103.883 10.1376 103.412 10.5194 103.066 11.0038C102.771 11.4349 102.615 11.9454 102.618 12.4674C102.614 12.9572 102.734 13.4401 102.966 13.8713C103.21 14.3142 103.576 14.6773 104.021 14.9167C104.564 15.1993 105.171 15.3365 105.783 15.315C106.356 15.3282 106.926 15.2336 107.464 15.0362C107.93 14.8542 108.356 14.5837 108.718 14.2397C108.856 14.1076 108.987 13.9683 109.11 13.8225C109.149 14.0287 109.222 14.227 109.326 14.4093C109.503 14.7141 109.776 14.952 110.102 15.0863C110.462 15.2312 110.848 15.3023 111.236 15.2954C111.356 15.2954 111.472 15.2918 111.585 15.2851C111.696 15.2788 111.805 15.2621 111.913 15.2354C112.019 15.2088 112.115 15.1856 112.202 15.1657C112.28 15.1482 112.356 15.1249 112.431 15.096L112.65 13.7618C112.54 13.7996 112.426 13.8264 112.311 13.8418C112.219 13.854 112.126 13.8605 112.033 13.8613M108.718 12.9652C108.503 13.136 108.269 13.2829 108.022 13.4033C107.776 13.5231 107.515 13.6103 107.246 13.6625C106.967 13.7162 106.684 13.7427 106.4 13.7419C106.075 13.7511 105.753 13.69 105.454 13.5626C105.211 13.4573 105.006 13.2802 104.867 13.0552C104.729 12.8164 104.66 12.544 104.668 12.2683C104.649 11.9363 104.74 11.6073 104.927 11.3324C105.143 11.0793 105.437 10.9044 105.763 10.8345C106.271 10.7149 106.793 10.6615 107.316 10.6756H109.058L109.049 12.6516C108.948 12.7655 108.837 12.8705 108.717 12.9652" fill="white"/>
<path d="M121.448 5.22631C121.428 5.21835 121.409 5.20872 121.389 5.20109C121.017 5.06064 120.634 4.95065 120.244 4.87219C119.789 4.78258 119.325 4.73933 118.861 4.74308C117.976 4.73628 117.107 4.97096 116.346 5.42185C115.585 5.87274 114.961 6.52276 114.542 7.30193C114.052 8.23708 113.812 9.28306 113.845 10.3384C113.822 11.2495 114.003 12.1543 114.373 12.9871C114.696 13.6982 115.222 14.2975 115.885 14.7093C116.599 15.1295 117.416 15.34 118.244 15.3167C118.752 15.3196 119.258 15.2525 119.747 15.1175C120.235 14.9772 120.7 14.7695 121.13 14.5002C121.279 14.4079 121.429 14.3051 121.577 14.1969L121.827 15.1175H123.479V0.10298L121.449 0.381764L121.448 5.22631ZM120.384 13.4153C119.93 13.5939 119.448 13.6917 118.96 13.704C118.392 13.7206 117.829 13.5865 117.328 13.3154C116.863 13.0402 116.499 12.6208 116.293 12.1206C116.035 11.479 115.913 10.7907 115.935 10.0994C115.912 9.39113 116.048 8.68668 116.333 8.03805C116.576 7.51185 116.976 7.07376 117.478 6.78385C118.023 6.48637 118.638 6.33855 119.259 6.35539C119.579 6.3547 119.898 6.378 120.214 6.42509C120.528 6.4737 120.838 6.54705 121.14 6.64446C121.237 6.67533 121.344 6.71648 121.448 6.75432V12.8919C121.11 13.0982 120.754 13.2733 120.384 13.4153Z" fill="white"/>
<path d="M128.324 0.590858C128.118 0.464577 127.88 0.399017 127.638 0.401683C127.393 0.399795 127.152 0.465228 126.941 0.590858C126.734 0.712391 126.559 0.883418 126.434 1.08869C126.307 1.2953 126.242 1.53342 126.244 1.77569C126.244 2.01878 126.308 2.25758 126.431 2.46756C126.553 2.67753 126.729 2.85112 126.941 2.97048C127.154 3.09002 127.394 3.15181 127.638 3.1497C127.878 3.15257 128.116 3.09068 128.324 2.97048C128.529 2.85197 128.698 2.67987 128.812 2.47265C128.932 2.25993 128.993 2.01967 128.991 1.77569C128.994 1.53479 128.932 1.29756 128.812 1.08869C128.694 0.884442 128.526 0.713252 128.324 0.590858Z" fill="white"/>
<path d="M126.583 15.1179H128.613V4.763L126.583 5.0617V15.1179Z" fill="white"/>
<path d="M140.715 7.18212C140.318 6.42064 139.705 5.7936 138.953 5.37998C138.112 4.95762 137.184 4.73933 136.244 4.74279C135.303 4.74625 134.377 4.97136 133.539 5.39989C132.77 5.83054 132.141 6.47342 131.728 7.25182C131.278 8.12516 131.056 9.09758 131.081 10.0795C131.056 11.0537 131.264 12.0199 131.688 12.8972C132.069 13.663 132.677 14.2924 133.429 14.6993C134.239 15.1239 135.143 15.3363 136.057 15.3167C137.014 15.3357 137.959 15.1095 138.804 14.6595C139.592 14.2291 140.239 13.5788 140.665 12.7877C141.127 11.904 141.356 10.9171 141.331 9.92019C141.354 8.97065 141.142 8.03018 140.715 7.18212ZM138.833 12.0509C138.61 12.5685 138.231 13.0036 137.749 13.2955C137.265 13.5728 136.715 13.7138 136.157 13.7037C135.61 13.7173 135.07 13.5721 134.604 13.2855C134.143 12.9788 133.783 12.5423 133.569 12.031C133.299 11.3751 133.17 10.6693 133.192 9.96001C133.169 9.26988 133.298 8.58307 133.571 7.94878C133.794 7.45016 134.166 7.03281 134.635 6.75399C135.138 6.47734 135.705 6.33985 136.278 6.35572C136.725 6.34462 137.17 6.4295 137.581 6.60464C137.942 6.76751 138.257 7.01723 138.497 7.33147C138.754 7.67302 138.94 8.06225 139.044 8.47648C139.169 8.96105 139.229 9.4598 139.224 9.96001C139.247 10.6769 139.114 11.3902 138.835 12.0509" fill="white"/>
</svg>

<svg xmlns="http://www.w3.org/2000/svg" viewBox="0 0 142 16"><path fill="#fff" d="M0 15.003V1.005h4.593v13.998H0Zm10.843-11.77 2.641 11.77H8.457L5.303 1.005h2.82a2.655 2.655 0 0 1 1.764.64c.491.404.829.964.956 1.587Zm3.331 11.77V1.005h4.594v13.998h-4.594Zm8.063-8.675a2.779 2.779 0 0 1-2.425-1.39 2.735 2.735 0 0 1-.374-1.41 2.685 2.685 0 0 1 .375-1.4 2.813 2.813 0 0 1 3.824-1.005c.415.244.761.59 1.005 1.005.25.424.38.908.375 1.4.005.495-.125.983-.375 1.41a2.8 2.8 0 0 1-1.005 1.015c-.424.251-.908.38-1.4.375Zm3.49 8.675V1.005h4.594v13.998h-4.594Zm10.409-6.348c.013.013.111.174.296.483.184.308.424.702.72 1.183a373.133 373.133 0 0 1 1.862 3.056c.289.48.617 1.022.986 1.626h-5.047l-.858-1.39c-.256-.414-.529-.86-.817-1.34-.29-.48-.576-.947-.858-1.4a71.236 71.236 0 0 1-.73-1.193 20.751 20.751 0 0 0-.424-.69 2.041 2.041 0 0 1-.335-.986c.02-.338.129-.665.316-.947.078-.131.223-.365.433-.7a212.331 212.331 0 0 0 1.598-2.603l.817-1.35.858-1.4H40l-3.904 6.369c-.12.189-.189.407-.197.63.013.236.095.463.236.652h.001ZM54.002 8.507a3.77 3.77 0 0 0-.995-.727 7.8 7.8 0 0 0-1.205-.488 13.61 13.61 0 0 0-1.313-.339c-.346-.08-.668-.159-.966-.239a4.434 4.434 0 0 1-.796-.289 2.635 2.635 0 0 1-.607-.398 1.427 1.427 0 0 1-.388-.557 2.142 2.142 0 0 1-.13-.787c-.004-.277.04-.554.13-.816.081-.232.218-.44.398-.608.186-.17.398-.311.627-.418.262-.12.54-.2.826-.239.34-.048.682-.071 1.025-.07a9.116 9.116 0 0 1 1.871.2c.3.065.596.148.886.249.271.093.534.21.786.348l.279-1.752a4.947 4.947 0 0 0-.886-.359 11.689 11.689 0 0 0-.945-.239 9.434 9.434 0 0 0-.976-.149c-.332-.033-.67-.05-1.015-.05a8.45 8.45 0 0 0-2.09.239c-.583.14-1.133.39-1.622.737A3.33 3.33 0 0 0 45.84 3.01a4.059 4.059 0 0 0-.368 1.792c-.011.479.066.955.228 1.404.143.377.364.72.648 1.006.28.28.602.516.955.697.373.193.763.353 1.164.479.418.132.846.245 1.284.338.358.08.69.162.995.249.284.078.56.181.826.309.229.107.44.248.627.418.178.167.317.37.408.597.106.273.157.564.15.857.005.31-.042.62-.14.915a2.13 2.13 0 0 1-.398.697 1.923 1.923 0 0 1-.637.478 3.23 3.23 0 0 1-.865.259 6.9 6.9 0 0 1-1.105.08 8.64 8.64 0 0 1-1.075-.07c-.372-.047-.744-.11-1.115-.19-.37-.079-.733-.175-1.085-.288a20.74 20.74 0 0 1-1.005-.349l.259 1.972c.34.127.685.236 1.035.328.318.084.64.15.965.2.312.046.624.082.936.109.312.026.627.04.946.04a9.782 9.782 0 0 0 2.12-.22 5.072 5.072 0 0 0 1.731-.716c.492-.326.89-.776 1.154-1.305.291-.626.431-1.311.409-2a4.488 4.488 0 0 0-.23-1.515 2.934 2.934 0 0 0-.656-1.074ZM65.915 13.863a.906.906 0 0 1-.777-.319 1.713 1.713 0 0 1-.219-1.055l.04-4.102a4.79 4.79 0 0 0-.159-1.275 3.126 3.126 0 0 0-.478-1.015 2.693 2.693 0 0 0-.826-.737 4.226 4.226 0 0 0-1.204-.458 7.078 7.078 0 0 0-1.573-.16c-.419 0-.838.027-1.254.08a8.61 8.61 0 0 0-1.164.23 9.697 9.697 0 0 0-1.045.348l-.239 1.693a11.674 11.674 0 0 1 1.812-.498c.273-.052.548-.09.826-.11.271-.02.54-.03.806-.03a4.46 4.46 0 0 1 1.204.14c.287.071.55.215.766.418.192.197.33.44.398.707.085.328.126.667.12 1.006l-.002.498-2.327.157a6.182 6.182 0 0 0-2.309.518 3.31 3.31 0 0 0-1.363 1.105c-.295.43-.45.941-.448 1.463-.004.49.116.973.348 1.404.244.443.61.806 1.055 1.046.543.282 1.15.42 1.762.398a4.579 4.579 0 0 0 1.681-.279 3.87 3.87 0 0 0 1.255-.796c.137-.132.268-.272.391-.418.039.207.112.405.216.587.177.305.45.543.776.677.36.145.746.216 1.134.21.12 0 .236-.004.349-.01.11-.007.22-.024.328-.05.106-.027.202-.05.289-.07.078-.018.154-.041.229-.07l.219-1.334c-.11.038-.224.064-.339.08a2.279 2.279 0 0 1-.278.02m-3.315-.897c-.215.171-.449.318-.696.438-.246.12-.507.207-.776.26a4.41 4.41 0 0 1-.846.079 2.246 2.246 0 0 1-.946-.18 1.299 1.299 0 0 1-.587-.507 1.49 1.49 0 0 1-.2-.787 1.51 1.51 0 0 1 .26-.936 1.52 1.52 0 0 1 .836-.498 6.069 6.069 0 0 1 1.553-.158h1.742l-.009 1.976a2.645 2.645 0 0 1-.331.313M63.864.003h-2.15l-1.691 3.565h1.552l2.29-3.565ZM82.176 5.16a3.464 3.464 0 0 0-1.772-.417 4.66 4.66 0 0 0-1.572.269 5.543 5.543 0 0 0-1.433.766 7.143 7.143 0 0 0-.707.598 2.496 2.496 0 0 0-1.025-1.195 3.507 3.507 0 0 0-1.791-.418c-.533 0-1.061.09-1.563.268a5.655 5.655 0 0 0-1.861 1.09V4.762l-2.03.298v10.056h2.03V7.543c.24-.156.489-.297.746-.42.316-.15.646-.267.986-.35.312-.076.633-.117.955-.119.296-.008.59.042.866.15.228.096.43.247.587.438.173.222.292.48.348.757.078.356.115.72.11 1.085v6.034h2.03V8.665a8.062 8.062 0 0 0-.076-1.14c.23-.15.468-.289.713-.414.31-.156.638-.276.975-.358.32-.078.647-.118.976-.12.292-.007.583.044.856.15.232.095.437.245.597.438.173.222.292.48.348.757.078.356.115.72.11 1.085v6.053h2.03V8.646a5.789 5.789 0 0 0-.358-2.21 2.566 2.566 0 0 0-1.075-1.275ZM86.615 15.118h2.03V4.763l-2.03.299v10.056ZM88.356.59a1.289 1.289 0 0 0-.686-.188 1.34 1.34 0 0 0-.697.189 1.458 1.458 0 0 0-.507.498 1.288 1.288 0 0 0-.19.687 1.37 1.37 0 0 0 .697 1.194c.213.12.453.182.697.18.24.003.477-.06.686-.18.205-.118.374-.29.488-.497a1.4 1.4 0 0 0 .18-.697c.002-.241-.06-.478-.18-.687a1.408 1.408 0 0 0-.488-.498ZM100.607 4.892c-.372.1-.728.254-1.055.458a5.19 5.19 0 0 0-.935.747c-.048.047-.093.1-.14.149V4.763l-2.03.298v10.056h2.03V7.595a5.16 5.16 0 0 1 1.085-.581c.206-.08.415-.15.627-.21a4.249 4.249 0 0 1 1.393-.149l.239-1.871a3.784 3.784 0 0 0-1.214.11ZM112.033 13.863a.91.91 0 0 1-.777-.319 1.72 1.72 0 0 1-.219-1.055l.04-4.102a4.766 4.766 0 0 0-.159-1.275 3.137 3.137 0 0 0-.478-1.015 2.68 2.68 0 0 0-.826-.737 4.222 4.222 0 0 0-1.204-.458 7.08 7.08 0 0 0-1.572-.16c-.42 0-.839.027-1.254.08-.393.05-.782.126-1.165.23a9.704 9.704 0 0 0-1.045.348l-.239 1.693a11.69 11.69 0 0 1 1.812-.498 7.28 7.28 0 0 1 .826-.11c.271-.02.54-.03.806-.03.406-.008.811.039 1.204.14.287.071.551.215.766.418.192.197.33.44.398.707.085.328.125.667.12 1.006l-.003.498-2.326.157a6.181 6.181 0 0 0-2.309.518 3.301 3.301 0 0 0-1.363 1.105 2.565 2.565 0 0 0-.448 1.463c-.004.49.116.973.348 1.404.244.443.61.806 1.055 1.046.543.282 1.15.42 1.762.398a4.573 4.573 0 0 0 1.681-.279 3.857 3.857 0 0 0 1.254-.796c.138-.132.269-.272.392-.418.039.207.112.405.216.587.177.305.45.543.776.677a2.9 2.9 0 0 0 1.134.21c.12 0 .236-.004.349-.01.111-.007.22-.024.328-.05.106-.027.202-.05.289-.07.078-.018.154-.041.229-.07l.219-1.334c-.11.038-.224.064-.339.08a2.265 2.265 0 0 1-.278.02m-3.315-.897c-.215.171-.449.318-.696.438-.246.12-.507.207-.776.26-.279.053-.562.08-.846.079a2.248 2.248 0 0 1-.946-.18 1.295 1.295 0 0 1-.587-.507 1.487 1.487 0 0 1-.199-.787 1.51 1.51 0 0 1 .259-.936c.216-.253.51-.428.836-.498a6.064 6.064 0 0 1 1.553-.158h1.742l-.009 1.976a2.58 2.58 0 0 1-.332.313M121.448 5.226l-.059-.025a6.874 6.874 0 0 0-2.528-.458 4.86 4.86 0 0 0-4.319 2.559 6.13 6.13 0 0 0-.697 3.036 6.143 6.143 0 0 0 .528 2.65 3.95 3.95 0 0 0 1.512 1.721c.714.42 1.531.631 2.359.608a5.53 5.53 0 0 0 1.503-.2c.488-.14.953-.348 1.383-.617.149-.092.299-.195.447-.303l.25.92h1.652V.104l-2.03.279-.001 4.844Zm-1.064 8.19a4.178 4.178 0 0 1-1.424.288 3.231 3.231 0 0 1-1.632-.389 2.492 2.492 0 0 1-1.035-1.194 4.992 4.992 0 0 1-.358-2.022 4.742 4.742 0 0 1 .398-2.061 2.808 2.808 0 0 1 1.145-1.254 3.52 3.52 0 0 1 1.781-.429 6.016 6.016 0 0 1 1.881.29c.097.03.204.071.308.11v6.137a6.54 6.54 0 0 1-1.064.523ZM128.324.59a1.286 1.286 0 0 0-.686-.188 1.342 1.342 0 0 0-.697.189 1.458 1.458 0 0 0-.507.498 1.29 1.29 0 0 0-.19.687 1.368 1.368 0 0 0 .697 1.194c.213.12.453.182.697.18.24.003.478-.06.686-.18.205-.118.374-.29.488-.497.12-.213.181-.453.179-.697a1.346 1.346 0 0 0-.179-.687 1.403 1.403 0 0 0-.488-.498ZM126.583 15.118h2.03V4.763l-2.03.299v10.056ZM140.715 7.182a4.353 4.353 0 0 0-1.762-1.802 5.987 5.987 0 0 0-5.414.02 4.587 4.587 0 0 0-1.811 1.852 5.848 5.848 0 0 0-.647 2.827c-.025.975.183 1.94.607 2.818a4.151 4.151 0 0 0 1.741 1.802 5.41 5.41 0 0 0 2.628.618 5.605 5.605 0 0 0 2.747-.658 4.64 4.64 0 0 0 1.861-1.871c.462-.884.691-1.87.666-2.868a5.778 5.778 0 0 0-.616-2.738Zm-1.882 4.869a2.708 2.708 0 0 1-1.084 1.245 3.09 3.09 0 0 1-1.592.408 2.831 2.831 0 0 1-1.553-.418 2.809 2.809 0 0 1-1.035-1.255 5.032 5.032 0 0 1-.377-2.071 4.692 4.692 0 0 1 .379-2.011 2.648 2.648 0 0 1 1.064-1.195 3.224 3.224 0 0 1 1.643-.398c.447-.011.892.074 1.303.249.361.163.676.412.916.726a3.2 3.2 0 0 1 .547 1.145c.125.485.185.984.18 1.484.023.717-.11 1.43-.389 2.09"/></svg>
